X: 1
T: Archie Neil Chisholm
C: Brenda Stubbert
R: march, strathspey
Z: 2014 John Chambers <jc:trillian.mit.edu>
N: Learned at Lance Ramshaw's Slow Scottish session 2014-3-18
M: C
L: 1/8
K: Ador
g |\
Te2 d<B TA2 B<G | TA2 e2 Te2 f<g | TB2 A<B {D}G2 E<D | TE2 G2 [G2G,2] Tg2 |
Te2 d<B TA2 B<G | TA2 e2 Te2 f<g | Te>d B<g Te2 d<B | {E}A4 TA3 :|
|: g |\
Te2 d<e g2 f<g | {g}a2 e2 Te2 e<a | Tg2 dg Te2 d<B | Td2 G2 G2 Tg2 |
[1 Te2 d<e g2 f<g | {g}a2 e2 Te2 e<a | g>e d<g | Te2 d<B | {E}A4 TA3 :|
[2 Te2 d<B TA2 B<G | TA2 e2 Te2 f<g | Te>d B<g Te2 d<B | {E}A4 TA3 |]
